packages/foundations/assets/icons/functional/images/social/face_smiling_28.svg

<svg width="28" height="28" viewBox="0 0 28 28" fill="none" xmlns="http://www.w3.org/2000/svg">
<g clip-path="url(#clip0_187_395)">
<path fill-rule="evenodd" clip-rule="evenodd" d="M14 3.5C19.7986 3.5 24.5 8.20138 24.5 14C24.5 19.7986 19.7986 24.5 14 24.5C8.20138 24.5 3.5 19.7986 3.5 14C3.5 8.20138 8.20138 3.5 14 3.5ZM14 4.98138C9.02738 4.98138 4.98138 9.02738 4.98138 14C4.98138 18.9726 9.02738 23.0186 14 23.0186C18.9726 23.0186 23.0186 18.9726 23.0186 14C23.0186 9.02738 18.9726 4.98138 14 4.98138ZM18.3409 15.75C18.5631 15.75 18.7863 15.8349 18.9569 16.0037C19.2999 16.3441 19.3025 16.8971 18.9621 17.241C18.8808 17.3232 16.9365 19.25 14 19.25C11.0635 19.25 9.11925 17.3232 9.03788 17.241C8.6975 16.8971 8.70013 16.3441 9.04313 16.0037C9.38525 15.6634 9.94 15.666 10.2804 16.009C10.2952 16.023 11.7845 17.5 14 17.5C16.1892 17.5 17.7074 16.0213 17.7196 16.009C17.8903 15.8366 18.116 15.75 18.3409 15.75ZM10.9375 9.625C11.904 9.625 12.6875 10.4085 12.6875 11.375C12.6875 12.3415 11.904 13.125 10.9375 13.125C9.971 13.125 9.1875 12.3415 9.1875 11.375C9.1875 10.4085 9.971 9.625 10.9375 9.625ZM17.0625 9.625C18.029 9.625 18.8125 10.4085 18.8125 11.375C18.8125 12.3415 18.029 13.125 17.0625 13.125C16.096 13.125 15.3125 12.3415 15.3125 11.375C15.3125 10.4085 16.096 9.625 17.0625 9.625Z" fill="#1A1C1F"/>
</g>
<defs>
<clipPath id="clip0_187_395">
<rect width="28" height="28" fill="white"/>
</clipPath>
</defs>
</svg>

<svg xmlns="http://www.w3.org/2000/svg" width="28" height="28" fill="none"><g clip-path="url(#a)"><path fill="#1A1C1F" fill-rule="evenodd" d="M14 3.5c5.799 0 10.5 4.701 10.5 10.5S19.799 24.5 14 24.5 3.5 19.799 3.5 14 8.201 3.5 14 3.5m0 1.481c-4.973 0-9.019 4.046-9.019 9.019S9.027 23.019 14 23.019s9.019-4.046 9.019-9.019S18.973 4.981 14 4.981m4.34 10.769a.875.875 0 0 1 .622 1.491c-.081.082-2.026 2.009-4.962 2.009s-4.88-1.927-4.962-2.009a.875.875 0 1 1 1.242-1.232c.015.014 1.505 1.491 3.72 1.491 2.19 0 3.707-1.479 3.72-1.491a.87.87 0 0 1 .62-.259m-7.402-6.125a1.75 1.75 0 1 1 0 3.5 1.75 1.75 0 0 1 0-3.5m6.124 0a1.75 1.75 0 1 1 0 3.5 1.75 1.75 0 0 1 0-3.5" clip-rule="evenodd"/></g><defs><clipPath id="a"><path fill="#fff" d="M0 0h28v28H0z"/></clipPath></defs></svg>
